brigadir/img/svg/icon_clear.svg

<svg width="17" height="16" viewBox="0 0 17 16" fill="none" xmlns="http://www.w3.org/2000/svg">
<path opacity="0.7" fill-rule="evenodd" clip-rule="evenodd" d="M8.24121 0C3.84121 0 0.241211 3.6 0.241211 8C0.241211 12.4 3.84121 16 8.24121 16C12.6412 16 16.2412 12.4 16.2412 8C16.2412 3.6 12.6412 0 8.24121 0ZM12.2412 11.0494L11.1212 12.2353L8.24121 9.18588L5.36121 12.2353L4.24121 11.0494L7.12121 8L4.24121 4.95059L5.36121 3.76471L8.24121 6.81412L11.1212 3.76471L12.2412 4.95059L9.36121 8L12.2412 11.0494Z" fill="white"/>
</svg>

<svg width="17" height="16" fill="none" xmlns="http://www.w3.org/2000/svg"><path opacity=".7" fill-rule="evenodd" clip-rule="evenodd" d="M8.241 0c-4.4 0-8 3.6-8 8s3.6 8 8 8 8-3.6 8-8-3.6-8-8-8zm4 11.05l-1.12 1.185-2.88-3.05-2.88 3.05-1.12-1.186L7.121 8l-2.88-3.05 1.12-1.185 2.88 3.05 2.88-3.05 1.12 1.186L9.361 8l2.88 3.05z" fill="#fff"/></svg>
